X: 32
T: No_133.krn
N: Derived from No_133.krn
%%abc-version 2.0
%%abcx-abcm2ps-target-version 5.9.1 (29 Sep 2008)
%%abc-creator hum2abc beta
%%abcx-conversion-date 2019/03/15 08:29:13
%%humdrum-veritas 3324317264
%%humdrum-veritas-data 2648314434
%%linebreak <none>
%%barnumbers 0
L: 1/8
M: 3/4
K: A clef=treble
z/ c/e3/e/ [I:setbarnb 1]| 
c3^B c=B | 
A7/e/ c3/c/ | 
B3{/d} A BA | 
F3A cc ||  
[M:4/4]F2{/c} FE-E2{/c} F/G/F/E/8F/8 ||  
[M:3/4]C3B, CB, | 
A,4CA/D//C// | 
B,3A, B,A, ||  
[M:4/4]F,6c/ee/ ||  
[M:3/4]c3c c3/B/ ||  
[M:4/4]A4{/!fermata!c}f2!fermata!c2 ||  
[M:3/4]!fermata!B3A B/c//B//A/B//A// | 
F3A cc/^e//f// ||  
[M:2/4]F3/(d//c//)F2 ||  
[M:3/4]!fermata!E2A3/c/ F3/A/ | 
C3B, CB, | 
A,4F2 | 
{/c}B,3A, B,A, | 
F,4!wedge!c z



